src/lib/packages/icons/src/assets/filled/chat-text-plus.svg

<svg width="24" height="24" viewBox="0 0 24 24" fill="none" xmlns="http://www.w3.org/2000/svg">
<path d="M10.6211 3.10301C7.32013 3.59401 4.50113 5.96401 3.46513 9.13701C2.69813 11.486 2.93502 13.823 3.83402 15.757C4.04402 16.197 4.04408 16.707 3.89408 17.177L3.054 19.676C2.79 20.461 3.53902 21.21 4.32402 20.946L6.82402 20.106C7.29401 19.956 7.80396 19.956 8.24296 20.166C9.38296 20.696 10.663 20.996 12.002 20.996C12.505 20.996 13.001 20.957 13.48 20.878C13.658 20.849 13.759 20.667 13.709 20.494C13.543 19.908 13.471 19.283 13.513 18.63C13.689 15.93 15.9331 13.685 18.6341 13.509C19.2871 13.467 19.9111 13.539 20.4981 13.705C20.6711 13.754 20.8521 13.653 20.8821 13.476C20.9611 12.997 21 12.501 21 11.998C21 6.57597 16.2021 2.27301 10.6211 3.10301ZM13 14.75H8.00004C7.58604 14.75 7.25004 14.414 7.25004 14C7.25004 13.586 7.58604 13.25 8.00004 13.25H13C13.414 13.25 13.75 13.586 13.75 14C13.75 14.414 13.414 14.75 13 14.75ZM16 10.75H8.00004C7.58604 10.75 7.25004 10.414 7.25004 9.99998C7.25004 9.58598 7.58604 9.24998 8.00004 9.24998H16C16.414 9.24998 16.75 9.58598 16.75 9.99998C16.75 10.414 16.414 10.75 16 10.75ZM21.75 18.5C21.75 18.914 21.414 19.25 21 19.25H19.25V21C19.25 21.414 18.914 21.75 18.5 21.75C18.086 21.75 17.75 21.414 17.75 21V19.25H16C15.586 19.25 15.25 18.914 15.25 18.5C15.25 18.086 15.586 17.75 16 17.75H17.75V16C17.75 15.586 18.086 15.25 18.5 15.25C18.914 15.25 19.25 15.586 19.25 16V17.75H21C21.414 17.75 21.75 18.086 21.75 18.5Z" fill="currentColor"/>
</svg>

<svg xmlns="http://www.w3.org/2000/svg" width="24" height="24" fill="none"><path fill="currentColor" d="M10.621 3.103c-3.3.491-6.12 2.861-7.156 6.034-.767 2.349-.53 4.686.369 6.62.21.44.21.95.06 1.42l-.84 2.499a1.003 1.003 0 0 0 1.27 1.27l2.5-.84c.47-.15.98-.15 1.419.06 1.14.53 2.42.83 3.759.83a9.1 9.1 0 0 0 1.478-.118c.178-.029.279-.211.229-.384a5.514 5.514 0 0 1-.196-1.864c.176-2.7 2.42-4.945 5.121-5.121a5.516 5.516 0 0 1 1.864.196c.173.049.354-.052.384-.229A9.1 9.1 0 0 0 21 11.998c0-5.422-4.798-9.725-10.379-8.895ZM13 14.75H8a.75.75 0 0 1 0-1.5h5a.75.75 0 0 1 0 1.5Zm3-4H8a.75.75 0 0 1 0-1.5h8a.75.75 0 0 1 0 1.5Zm5.75 7.75a.75.75 0 0 1-.75.75h-1.75V21a.75.75 0 0 1-1.5 0v-1.75H16a.75.75 0 0 1 0-1.5h1.75V16a.75.75 0 0 1 1.5 0v1.75H21a.75.75 0 0 1 .75.75Z"/></svg>
